X:1
T:See Him in the Garden Lone
T:See Him in the Garden Lone
T:Harry Sanders
T:Harry Sanders, 1888
T:Public Domain Courtesy of the Cyber Hymnal™
C:Harry Sanders
Z:Public Domain
Z:Courtesy of the Cyber Hymnal™
%%score ( 1 2 ) ( 3 4 )
L:1/8
Q:1/4=105
M:4/4
K:Ab
V:1 treble 
V:2 treble 
V:3 bass 
V:4 bass 
V:1
 [CE]2 [CE]2 [B,E]2 [C=E]2 | [B,F]2 [B,F]2 [DF]4 | [DB]2 [DB]2 [CA]2 [DG]2 | [CA]4 [CE]4 | %4
w: 1.~See Him in the|gar- den lone,|Mid- night dark- ness|o’er Him;|
w: 2.~All His friends for-|sake Him now,|None with Him are|stay- ing;|
w: 3.~On Him all our|sins were laid,|Thro’ Him came sal-|va- tion;|
w: 4.~“Man of sor- rows!”|Born to grief!|For our sins a-|ton- ing;|
 [Ec]2 [Ec]2 [=Ec]2 [EB]2 | [FA]2 [=EG]2 F4 | [DF]2 [DF]2 [FB]2 [FA]2 | G4 [CA]4 | %8
w: None but God to|hear His moan,|Naught but death be-|fore Him;|
w: Blood- y sweat up-|on His brow,|To His Fa- ther|pray- ing;|
w: He for us a|ran- som paid,|Price- less, pure o-|bla- tion.|
w: By whose stripes we|find re- lief,|Our lost state be-|moan- ing;|
 [DF]3 [DF] [DF]4 | [CE]3 [CA] [CA]4 | [CA]2 [CA]2 [FA]2 F2 | E2 [DG]2 [CA]4 |] %12
w: All a- lone!|All a- lone!|He the wine press|treads a- lone.|
w: All a- lone!|All a- lone!|He the wine press|treads a- lone.|
w: All a- lone!|All a- lone!|He the wine press|trod a- lone.|
w: All a- lone!|All a- lone!|He the wine press|trod a- lone.|
V:2
 x8 | x8 | x8 | x8 | x8 | x4 F4 | x8 | (E2 D2) x4 | x8 | x8 | x6 F2 | E2 x6 |] %12
V:3
 A,2 A,2 [G,B,]2 [G,B,]2 | [F,A,]2 [F,A,]2 [D,A,]4 | [B,,G,]2 [B,,G,]2 [E,A,]2 E,2 | %3
 [A,,E,]4 [A,,A,]4 | A,2 A,2 [G,B,]2 [G,C]2 | [F,C]2 [C,B,]2 [D,B,]4 | %6
 [D,B,]2 [D,A,]2 [=D,F,]2 [D,B,]2 | [E,B,]4 [A,,A,]4 | [D,A,]3 [D,A,] [D,A,]4 | %9
 [A,,A,]3 [A,,E,] [A,,E,]4 | [F,A,]2 [E,A,]2 [D,A,]2 [C,A,]2 | [B,,G,]2 [E,B,]2 [A,,A,]4 |] %12
V:4
 A,2 A,2 x4 | x8 | x6 E,2 | x8 | A,2 A,2 x4 | x8 | x8 | x8 | x8 | x8 | x8 | x8 |] %12

